GWA/img/icons/icon-instagram.svg

<svg width="19" height="18" viewBox="0 0 19 18" fill="none" xmlns="http://www.w3.org/2000/svg">
<path d="M9.3335 4C6.57042 4 4.3335 6.23936 4.3335 9C4.3335 11.7631 6.57286 14 9.3335 14C12.0966 14 14.3335 11.7606 14.3335 9C14.3335 6.23693 12.0941 4 9.3335 4ZM9.3335 12.2454C7.53989 12.2454 6.08812 10.7928 6.08812 9C6.08812 7.20721 7.54071 5.75463 9.3335 5.75463C11.1263 5.75463 12.5789 7.20721 12.5789 9C12.5797 10.7928 11.1271 12.2454 9.3335 12.2454Z" fill="white"/>
<path d="M13.0447 0.056539C11.3887 -0.0207096 7.28692 -0.0169597 5.62942 0.056539C4.17292 0.124788 2.88817 0.476532 1.85242 1.51226C0.121416 3.24323 0.342667 5.57569 0.342667 8.99638C0.342667 12.4973 0.147667 14.7758 1.85242 16.4805C3.59017 18.2175 5.95642 17.9902 9.33667 17.9902C12.8047 17.9902 14.0017 17.9925 15.2279 17.5177C16.8952 16.8705 18.1537 15.3803 18.2767 12.7036C18.3547 11.0468 18.3502 6.94592 18.2767 5.28845C18.1282 2.12875 16.4324 0.212536 13.0447 0.056539ZM15.6659 15.3353C14.5312 16.47 12.9569 16.3688 9.31492 16.3688C5.56492 16.3688 4.06117 16.4243 2.96392 15.324C1.70017 14.0663 1.92892 12.0466 1.92892 8.98438C1.92892 4.8407 1.50367 1.85651 5.66242 1.64351C6.61792 1.60976 6.89917 1.59851 9.30442 1.59851L9.33817 1.62101C13.3349 1.62101 16.4707 1.20252 16.6589 5.36045C16.7017 6.30918 16.7114 6.59417 16.7114 8.99563C16.7107 12.7021 16.7812 14.2148 15.6659 15.3353Z" fill="white"/>
<path d="M14.3335 5C14.8858 5 15.3335 4.55228 15.3335 4C15.3335 3.44772 14.8858 3 14.3335 3C13.7812 3 13.3335 3.44772 13.3335 4C13.3335 4.55228 13.7812 5 14.3335 5Z" fill="white"/>
</svg>

<svg width="19" height="18" fill="none" xmlns="http://www.w3.org/2000/svg"><path d="M9.334 4a5 5 0 100 10 5 5 0 100-10zm0 8.245A3.245 3.245 0 1112.579 9a3.244 3.244 0 01-3.245 3.245z" fill="#fff"/><path d="M13.045.057c-1.656-.078-5.758-.074-7.416 0-1.456.068-2.74.42-3.777 1.455C.122 3.243.342 5.576.342 8.996c0 3.501-.194 5.78 1.51 7.484 1.738 1.738 4.104 1.51 7.485 1.51 3.468 0 4.665.003 5.89-.472 1.668-.648 2.927-2.138 3.05-4.814.078-1.657.073-5.758 0-7.416-.149-3.16-1.845-5.075-5.232-5.231zm2.62 15.278c-1.134 1.135-2.708 1.034-6.35 1.034-3.75 0-5.254.055-6.351-1.045-1.264-1.258-1.035-3.277-1.035-6.34 0-4.143-.425-7.127 3.733-7.34.956-.034 1.237-.045 3.642-.045l.034.022c3.997 0 7.133-.418 7.32 3.74.044.948.053 1.233.053 3.635 0 3.706.07 5.219-1.045 6.34z" fill="#fff"/><path d="M14.334 5a1 1 0 100-2 1 1 0 000 2z" fill="#fff"/></svg>
